swiss/communes/0297.svg

<?xml version="1.0" encoding="UTF-8" standalone="no"?>
<!-- Created with Inkscape (http://www.inkscape.org/) -->
<svg
   xmlns:svg="http://www.w3.org/2000/svg"
   xmlns="http://www.w3.org/2000/svg"
   version="1.0"
   width="234.47992"
   height="274.65668"
   id="svg2403">
  <defs
     id="defs2406" />
  <path
     d="M 1,1 L 5.2269022,178.54388 C 8.2461112,305.36092 226.23379,305.36092 229.25301,178.54388 L 233.47992,1 L 1,1 z "
     style="fill:#ffffff;fill-opacity:1;fill-rule:evenodd;stroke:#000000;stroke-width:2;stroke-linecap:butt;stroke-miterlimit:4;stroke-dashoffset:0;stroke-opacity:1"
     id="path3282" />
  <path
     d="M 130.61788,126.42768 C 136.2353,132.75197 139.83642,135.18685 143.48541,136.57697 C 143.51475,134.25606 144.39028,128.82503 144.90315,126.54559 C 146.50753,131.04709 150.97871,139.62534 154.05188,142.36879 C 155.53351,139.9184 157.24832,136.48018 158.21708,132.14926 C 158.76787,137.02071 161.33223,144.56379 163.72564,148.26786 C 166.40396,144.50679 168.78186,137.57338 169.43804,131.64853 C 170.57775,135.12467 172.7053,139.39693 174.37863,141.60555 C 176.32473,136.98447 177.84952,133.55504 178.61967,126.78233 C 179.83711,128.28638 181.03381,129.69028 182.1597,130.94397 C 182.4394,124.67385 182.56028,118.51248 182.08888,110.44124 C 160.39992,134.70331 139.9063,112.09691 129.4888,95.157278 C 132.61402,97.531343 135.72124,100.51134 139.45141,102.96024 C 140.20773,100.63073 140.35102,98.280483 140.59447,94.191339 C 142.59589,99.425443 145.52291,106.00143 148.0372,109.10108 C 150.11111,105.94443 152.36812,100.82431 153.38695,97.800703 C 154.52667,101.27684 157.13775,107.9668 158.81107,110.17542 C 161.60338,106.6423 161.91932,103.21288 163.173,97.286363 C 164.02779,99.394843 165.82892,102.37024 167.19658,103.62393 C 168.0807,96.386733 168.20158,88.17032 167.85107,79.49465 C 145.55768,90.096697 135.57441,77.433093 127.07776,65.026663 C 129.10736,67.311405 132.63328,70.516366 136.674,71.50581 C 137.41817,69.195356 138.46633,66.976479 139.24339,65.282605 C 140.38311,68.758745 142.38976,73.393658 145.03017,74.997853 C 145.76743,71.464733 146.68779,69.002394 147.33705,66.339772 C 148.19184,68.448252 151.68536,71.423652 153.05302,72.677342 C 153.93714,65.440142 154.17891,63.267985 153.8284,54.592315 C 136.24952,59.754531 131.25277,50.18804 124.08513,41.255516 C 127.1193,43.515176 129.48733,45.494614 132.69531,46.127464 C 133.29337,44.686951 133.64728,42.851504 134.67191,41.369969 C 135.22515,42.734622 138.5742,45.748329 139.45938,46.559743 C 140.0316,41.875676 140.7925,37.931223 140.56564,32.316148 C 124.40186,32.34398 122.51136,22.865293 118.57693,11.549537 C 113.61834,25.205755 105.92536,33.538394 96.325301,32.678803 C 96.098441,38.293878 96.141081,40.190337 96.713301,44.874404 C 97.989681,44.219468 100.49958,41.760488 102.38255,40.154066 C 102.35482,42.823295 101.52808,45.02845 102.94412,47.31516 C 107.48455,45.90595 110.75789,42.851647 112.82208,40.711532 C 108.19374,48.524329 101.04251,59.996302 82.85921,54.592315 C 82.508704,63.267985 82.387819,65.077487 83.271938,72.314687 C 85.244022,71.302767 88.374886,68.810907 89.229673,66.702427 C 90.120704,70.453015 89.590447,72.552699 91.778325,76.085819 C 93.451651,73.877199 95.941841,69.725826 98.048651,66.249686 C 98.221281,69.152411 98.544131,71.613059 98.925651,73.681742 C 103.1821,71.424573 106.3279,68.82485 108.25937,66.679351 C 100.4578,76.803506 87.745146,91.305548 68.23211,79.49465 C 67.881604,88.17032 68.002489,96.386733 68.886608,103.62393 C 70.254267,102.37024 72.055394,99.394843 72.910181,97.286363 C 74.163868,103.21288 74.721577,105.91699 77.51388,109.45011 C 79.187208,107.24149 81.556517,101.27684 82.696232,97.800703 C 83.715063,100.82431 85.004995,105.46089 87.078903,108.61754 C 89.955847,106.12232 95.179681,100.27164 97.181101,95.037535 C 97.424551,99.126683 97.446961,101.96047 98.203281,104.28998 C 101.32903,102.68728 104.82247,100.08561 106.64151,98.239843 C 97.577301,110.63059 75.293975,132.64825 52.758814,111.40832 C 51.562112,119.84222 51.562112,125.8827 52.929771,133.1199 C 54.29743,131.86621 55.494132,130.09966 56.348919,127.99118 C 57.602606,133.9177 59.369166,139.1604 62.161469,142.69352 C 63.472142,140.24313 64.269944,136.93795 65.409659,133.46181 C 66.549375,138.41958 68.201963,142.69351 70.880296,146.45458 C 73.2737,142.75051 75.83806,139.5593 77.718591,135.17139 C 78.68735,139.50231 79.314193,141.61079 80.795824,144.06118 C 83.868992,141.31773 88.702831,134.55275 91.274297,130.29302 C 91.787168,132.57246 92.420921,136.31111 92.933801,137.90671 C 98.040631,134.685 101.59766,132.7067 107.09179,127.3672 C 93.139531,146.04959 65.143794,169.43196 42.159456,140.12916 C 41.304669,149.24689 40.62084,156.99695 41.133712,165.43085 C 42.501371,163.49333 44.039987,162.23965 45.236689,159.6183 C 45.635589,165.71578 46.547362,171.98422 48.997751,177.39787 C 50.821296,174.43461 52.644842,171.47134 54.468387,168.50808 C 55.608103,173.46585 57.260691,177.05595 59.939024,180.81702 C 62.674342,177.96773 65.067745,173.23791 66.093489,168.16617 C 67.233205,173.69379 68.543878,178.36663 70.538381,182.18468 C 73.611549,179.44123 76.343827,174.8193 77.718591,169.87574 C 79.257207,172.66805 79.941037,174.94748 80.453909,178.93649 C 84.4999,175.57432 88.545892,171.35737 91.395181,166.11468 C 91.509153,169.19191 91.623124,172.26915 91.737096,175.34638 C 101.80027,166.44659 108.96123,153.24866 117.87719,141.00764 C 123.29084,151.09412 135.21155,170.55957 143.53148,176.37212 C 143.64545,173.29489 144.27229,167.65329 144.38626,164.57606 C 147.23555,169.81875 149.91389,176.08719 153.95988,179.44936 C 154.47275,175.46035 157.03711,172.66805 158.57572,169.87574 C 159.95049,174.8193 160.80224,178.7574 163.8754,181.50085 C 165.86991,177.6828 166.66771,176.08719 167.80743,170.55957 C 168.83317,175.63131 171.9104,178.65156 174.64573,181.50085 C 177.32406,177.73978 178.46378,173.12394 179.60349,168.16617 C 181.42704,171.12943 183.93441,174.60557 185.75796,177.56883 C 188.20835,172.15518 188.7782,166.57057 189.86093,160.13117 C 191.05763,162.75252 191.91242,165.2029 193.28008,167.14042 C 194.64774,159.39035 193.45104,152.15317 192.59625,143.03544 C 166.85285,171.296 145.20651,143.07846 130.61788,126.42768 z "
     style="fill:#25502f;fill-opacity:1;fill-rule:evenodd;stroke:#000000;stroke-width:1px;stroke-linecap:butt;stroke-linejoin:miter;stroke-opacity:1"
     id="path2417" />
  <path
     d="M 107.64828,207.38622 L 109.91724,154.30647 L 125.76976,155.51532 L 127.93858,208.27034 L 107.64828,207.38622 z "
     style="fill:#bf3323;fill-opacity:1;fill-rule:evenodd;stroke:#000000;stroke-width:1px;stroke-linecap:butt;stroke-linejoin:miter;stroke-opacity:1"
     id="path6358" />
  <path
     d="M 8.8336512,203.1834 C 35.409015,297.13324 199.07078,297.13323 225.64615,203.1834 L 8.8336512,203.1834 z "
     style="fill:#25502f;fill-opacity:1;fill-rule:evenodd;stroke:#000000;stroke-width:1px;stroke-linecap:butt;stroke-linejoin:miter;stroke-opacity:1"
     id="path6360" />
  <path
     d="M 116.87246,180.34049 C 114.01152,177.23777 111.15057,170.87115 109.86112,166.55958 C 108.89404,168.01021 107.68519,169.46083 106.47634,170.30702 C 105.46897,165.31044 104.82425,159.70943 107.32254,154.83373 C 105.9928,156.52612 104.54218,157.25143 102.97067,157.73497 C 103.5751,144.4779 110.82821,133.51765 116.6307,128.11811 C 123.56144,135.08916 132.42635,149.55508 130.65337,158.94382 C 129.44452,158.90353 128.35655,158.37969 127.02682,157.00966 C 127.06711,162.20772 127.10741,166.92224 126.42239,171.63676 C 125.09265,170.91145 123.40026,169.58171 122.1914,167.64755 C 120.66019,173.00679 119.12898,176.67364 116.87246,180.34049 z "
     style="opacity:1;color:#000000;fill:#25502f;fill-opacity:1;fill-rule:evenodd;stroke:#000000;stroke-width:1px;stroke-linecap:butt;stroke-linejoin:miter;marker:none;marker-start:none;marker-mid:none;marker-end:none;stroke-miterlimit:4;stroke-dasharray:none;stroke-dashoffset:0;stroke-opacity:1;visibility:visible;display:inline;overflow:visible;enable-background:accumulate"
     id="path3441" />
  <path
     d="M 117.47689,146.9762 C 114.61595,143.87348 111.755,137.26509 111.19086,132.71175 C 110.22378,134.16238 109.2567,137.18451 108.04785,138.0307 C 107.28225,134.24297 106.51665,130.93878 107.44343,125.70042 C 106.11369,127.39281 105.50927,129.20609 103.93776,129.68963 C 103.33333,115.34459 108.89405,106.68115 116.99336,96.808873 C 124.64941,103.29638 131.33839,112.92689 131.01603,126.90927 C 129.56541,125.53924 127.9939,124.41097 126.66417,123.04094 C 126.70446,128.239 126.3821,134.04149 125.69708,138.75601 C 124.36734,138.0307 123.64203,137.30539 123.0376,136.33831 C 121.38551,139.88427 119.73341,143.30935 117.47689,146.9762 z "
     style="opacity:1;color:#000000;fill:#25502f;fill-opacity:1;fill-rule:evenodd;stroke:#000000;stroke-width:1px;stroke-linecap:butt;stroke-linejoin:miter;marker:none;marker-start:none;marker-mid:none;marker-end:none;stroke-miterlimit:4;stroke-dasharray:none;stroke-dashoffset:0;stroke-opacity:1;visibility:visible;display:inline;overflow:visible;enable-background:accumulate"
     id="path3443" />
  <path
     d="M 117.11423,114.82076 C 111.82392,109.03461 110.14576,104.07128 112.27883,93.30321 C 111.19086,96.083566 109.74025,100.6772 108.16874,101.16074 C 105.02572,87.057474 110.1029,81.899703 118.20221,72.027423 C 125.85826,78.514933 132.78901,90.079605 125.81797,102.73225 C 124.36735,101.36222 123.52115,95.277658 123.1585,93.544973 C 125.46006,105.53413 122.44976,110.02821 117.11423,114.82076 z "
     style="opacity:1;color:#000000;fill:#25502f;fill-opacity:1;fill-rule:evenodd;stroke:#000000;stroke-width:1px;stroke-linecap:butt;stroke-linejoin:miter;marker:none;marker-start:none;marker-mid:none;marker-end:none;stroke-miterlimit:4;stroke-dasharray:none;stroke-dashoffset:0;stroke-opacity:1;visibility:visible;display:inline;overflow:visible;enable-background:accumulate"
     id="path6352" />
  <path
     d="M 116.80987,81.335584 C 112.63766,76.383032 111.31419,72.134758 112.99642,62.918017 C 112.1384,65.297813 109.66464,69.954966 108.42525,70.368844 C 108.4851,59.143597 110.55507,52.673848 116.94259,44.223845 C 122.98056,49.776714 127.72119,61.851222 123.5532,70.505099 C 122.40916,69.332446 121.86271,64.608011 121.5767,63.12495 C 123.39183,73.386858 121.01774,77.233486 116.80987,81.335584 z "
     style="opacity:1;color:#000000;fill:#25502f;fill-opacity:1;fill-rule:evenodd;stroke:#000000;stroke-width:1px;stroke-linecap:butt;stroke-linejoin:miter;marker:none;marker-start:none;marker-mid:none;marker-end:none;stroke-miterlimit:4;stroke-dasharray:none;stroke-dashoffset:0;stroke-opacity:1;visibility:visible;display:inline;overflow:visible;enable-background:accumulate"
     id="path6354" />
  <path
     d="M 117.05164,49.784567 C 112.41514,42.418368 109.6433,34.668623 118.03056,22.222753 C 128.369,33.955672 123.24055,45.534903 117.05164,49.784567 z "
     style="opacity:1;color:#000000;fill:#25502f;fill-opacity:1;fill-rule:evenodd;stroke:#000000;stroke-width:1px;stroke-linecap:butt;stroke-linejoin:miter;marker:none;marker-start:none;marker-mid:none;marker-end:none;stroke-miterlimit:4;stroke-dasharray:none;stroke-dashoffset:0;stroke-opacity:1;visibility:visible;display:inline;overflow:visible;enable-background:accumulate"
     id="path6356" />
</svg>

<svg xmlns="http://www.w3.org/2000/svg" version="1.0" width="234.48" height="274.657"><path d="m1 1 4.227 177.544c3.02 126.817 221.007 126.817 224.026 0L233.48 1H1z" style="fill:#fff;fill-opacity:1;fill-rule:evenodd;stroke:#000;stroke-width:2;stroke-linecap:butt;stroke-miterlimit:4;stroke-dashoffset:0;stroke-opacity:1"/><path d="M130.618 126.428c5.617 6.324 9.218 8.759 12.867 10.149.03-2.32.905-7.752 1.418-10.031 1.605 4.501 6.076 13.08 9.149 15.823 1.482-2.45 3.196-5.889 4.165-10.22.55 4.872 3.115 12.415 5.509 16.119 2.678-3.761 5.056-10.695 5.712-16.62 1.14 3.477 3.267 7.749 4.94 9.958 1.947-4.622 3.472-8.051 4.242-14.824a107.483 107.483 0 0 0 3.54 4.162c.28-6.27.4-12.432-.071-20.503-21.69 24.262-42.183 1.656-52.6-15.284 3.125 2.374 6.232 5.354 9.962 7.803.757-2.33.9-4.68 1.143-8.769 2.002 5.234 4.929 11.81 7.443 14.91 2.074-3.157 4.331-8.277 5.35-11.3 1.14 3.476 3.75 10.166 5.424 12.374 2.792-3.533 3.108-6.962 4.362-12.889.855 2.109 2.656 5.084 4.024 6.338.884-7.237 1.005-15.454.654-24.13-22.293 10.603-32.277-2.06-40.773-14.467 2.03 2.284 5.555 5.49 9.596 6.479.744-2.31 1.792-4.53 2.57-6.223 1.14 3.476 3.146 8.11 5.786 9.715.737-3.533 1.658-5.996 2.307-8.658.855 2.108 4.348 5.084 5.716 6.337.884-7.237 1.126-9.409.775-18.085-17.578 5.163-22.575-4.404-29.743-13.336 3.034 2.26 5.402 4.239 8.61 4.871.598-1.44.952-3.275 1.977-4.757.553 1.365 3.902 4.378 4.787 5.19.573-4.684 1.333-8.629 1.107-14.244-16.164.028-18.055-9.45-21.99-20.766-4.958 13.656-12.65 21.988-22.25 21.129-.228 5.615-.185 7.511.387 12.195 1.277-.655 3.787-3.114 5.67-4.72-.028 2.67-.855 4.874.561 7.161 4.54-1.41 7.814-4.463 9.878-6.603-4.628 7.812-11.78 19.284-29.963 13.88-.35 8.676-.471 10.485.413 17.723 1.972-1.012 5.103-3.504 5.958-5.613.89 3.751.36 5.85 2.548 9.384 1.674-2.209 4.164-6.36 6.27-9.836.173 2.902.496 5.363.878 7.432 4.256-2.257 7.402-4.857 9.333-7.003-7.801 10.125-20.514 24.627-40.027 12.816-.35 8.675-.23 16.892.655 24.129 1.367-1.254 3.168-4.23 4.023-6.338 1.254 5.927 1.812 8.631 4.604 12.164 1.673-2.209 4.043-8.173 5.182-11.65 1.02 3.024 2.309 7.66 4.383 10.818 2.877-2.496 8.1-8.346 10.102-13.58.244 4.089.266 6.922 1.022 9.252 3.126-1.603 6.62-4.204 8.439-6.05-9.065 12.39-31.348 34.408-53.883 13.168-1.197 8.434-1.197 14.475.17 21.712 1.368-1.254 2.565-3.02 3.42-5.129 1.254 5.927 3.02 11.17 5.812 14.703 1.311-2.45 2.109-5.756 3.249-9.232 1.14 4.958 2.792 9.232 5.47 12.993 2.394-3.704 4.958-6.896 6.839-11.284.968 4.331 1.595 6.44 3.077 8.89 3.073-2.743 7.907-9.508 10.478-13.768.513 2.28 1.147 6.018 1.66 7.614 5.107-3.222 8.664-5.2 14.158-10.54-13.952 18.683-41.948 42.065-64.933 12.762-.854 9.118-1.538 16.868-1.025 25.302 1.367-1.938 2.906-3.191 4.103-5.813.399 6.098 1.31 12.366 3.76 17.78l5.471-8.89c1.14 4.958 2.793 8.548 5.471 12.309 2.735-2.85 5.129-7.58 6.154-12.65 1.14 5.527 2.45 10.2 4.445 14.018 3.074-2.744 5.806-7.366 7.18-12.31 1.54 2.793 2.223 5.072 2.736 9.061 4.046-3.362 8.092-7.579 10.941-12.821l.342 9.231c10.063-8.9 17.224-22.097 26.14-34.338 5.414 10.086 17.335 29.552 25.654 35.364.114-3.077.741-8.719.855-11.796 2.85 5.243 5.528 11.511 9.574 14.873.513-3.989 3.077-6.781 4.616-9.573 1.374 4.943 2.226 8.881 5.3 11.625 1.994-3.818 2.792-5.414 3.931-10.941 1.026 5.071 4.103 8.092 6.839 10.94 2.678-3.76 3.818-8.376 4.957-13.334 1.824 2.963 4.331 6.44 6.155 9.403 2.45-5.414 3.02-10.998 4.103-17.438 1.197 2.622 2.051 5.072 3.42 7.01 1.367-7.75.17-14.988-.685-24.106-25.743 28.261-47.39.043-61.978-16.607z" style="fill:#25502f;fill-opacity:1;fill-rule:evenodd;stroke:#000;stroke-width:1px;stroke-linecap:butt;stroke-linejoin:miter;stroke-opacity:1"/><path d="m107.648 207.386 2.27-53.08 15.852 1.21 2.169 52.754-20.29-.884z" style="fill:#bf3323;fill-opacity:1;fill-rule:evenodd;stroke:#000;stroke-width:1px;stroke-linecap:butt;stroke-linejoin:miter;stroke-opacity:1"/><path d="M8.834 203.183c26.575 93.95 190.237 93.95 216.812 0H8.834z" style="fill:#25502f;fill-opacity:1;fill-rule:evenodd;stroke:#000;stroke-width:1px;stroke-linecap:butt;stroke-linejoin:miter;stroke-opacity:1"/><path d="M116.872 180.34c-2.86-3.102-5.721-9.469-7.01-13.78-.968 1.45-2.177 2.9-3.386 3.747-1.007-4.997-1.652-10.598.847-15.473-1.33 1.692-2.78 2.417-4.352 2.901.604-13.257 7.857-24.217 13.66-29.617 6.93 6.971 15.795 21.437 14.022 30.826-1.208-.04-2.296-.564-3.626-1.934.04 5.198.08 9.912-.605 14.627-1.33-.726-3.022-2.055-4.23-3.99-1.532 5.36-3.063 9.027-5.32 12.693z" style="opacity:1;color:#000;fill:#25502f;fill-opacity:1;fill-rule:evenodd;stroke:#000;stroke-width:1px;stroke-linecap:butt;stroke-linejoin:miter;marker:none;marker-start:none;marker-mid:none;marker-end:none;stroke-miterlimit:4;stroke-dasharray:none;stroke-dashoffset:0;stroke-opacity:1;visibility:visible;display:inline;overflow:visible;enable-background:accumulate"/><path d="M117.477 146.976c-2.861-3.103-5.722-9.71-6.286-14.264-.967 1.45-1.934 4.473-3.143 5.319-.766-3.788-1.531-7.092-.605-12.33-1.33 1.692-1.934 3.505-3.505 3.989-.605-14.345 4.956-23.009 13.055-32.881 7.656 6.487 14.345 16.118 14.023 30.1-1.45-1.37-3.022-2.498-4.352-3.868.04 5.198-.282 11-.967 15.715-1.33-.725-2.055-1.45-2.66-2.418-1.651 3.546-3.304 6.971-5.56 10.638z" style="opacity:1;color:#000;fill:#25502f;fill-opacity:1;fill-rule:evenodd;stroke:#000;stroke-width:1px;stroke-linecap:butt;stroke-linejoin:miter;marker:none;marker-start:none;marker-mid:none;marker-end:none;stroke-miterlimit:4;stroke-dasharray:none;stroke-dashoffset:0;stroke-opacity:1;visibility:visible;display:inline;overflow:visible;enable-background:accumulate"/><path d="M117.114 114.82c-5.29-5.785-6.968-10.749-4.835-21.517-1.088 2.78-2.539 7.374-4.11 7.858-3.143-14.104 1.934-19.261 10.033-29.134 7.656 6.488 14.587 18.053 7.616 30.705-1.45-1.37-2.297-7.454-2.66-9.187 2.302 11.99-.708 16.483-6.044 21.276z" style="opacity:1;color:#000;fill:#25502f;fill-opacity:1;fill-rule:evenodd;stroke:#000;stroke-width:1px;stroke-linecap:butt;stroke-linejoin:miter;marker:none;marker-start:none;marker-mid:none;marker-end:none;stroke-miterlimit:4;stroke-dasharray:none;stroke-dashoffset:0;stroke-opacity:1;visibility:visible;display:inline;overflow:visible;enable-background:accumulate"/><path d="M116.81 81.336c-4.172-4.953-5.496-9.201-3.814-18.418-.858 2.38-3.331 7.037-4.57 7.45.06-11.224 2.13-17.694 8.517-26.144 6.038 5.553 10.778 17.627 6.61 26.281-1.144-1.173-1.69-5.897-1.976-7.38 1.815 10.262-.56 14.108-4.767 18.21z" style="opacity:1;color:#000;fill:#25502f;fill-opacity:1;fill-rule:evenodd;stroke:#000;stroke-width:1px;stroke-linecap:butt;stroke-linejoin:miter;marker:none;marker-start:none;marker-mid:none;marker-end:none;stroke-miterlimit:4;stroke-dasharray:none;stroke-dashoffset:0;stroke-opacity:1;visibility:visible;display:inline;overflow:visible;enable-background:accumulate"/><path d="M117.052 49.785c-4.637-7.367-7.409-15.116.979-27.562 10.338 11.733 5.21 23.312-.98 27.562z" style="opacity:1;color:#000;fill:#25502f;fill-opacity:1;fill-rule:evenodd;stroke:#000;stroke-width:1px;stroke-linecap:butt;stroke-linejoin:miter;marker:none;marker-start:none;marker-mid:none;marker-end:none;stroke-miterlimit:4;stroke-dasharray:none;stroke-dashoffset:0;stroke-opacity:1;visibility:visible;display:inline;overflow:visible;enable-background:accumulate"/></svg>
